X:1
T:Title
%%score { ( 1 4 ) | ( 2 3 ) }
L:1/8
Q:1/4=112
M:3/4
K:F
V:1 treble nm="Grand Piano"
V:4 treble 
V:2 bass 
V:3 bass 
V:1
 F2 F2 G2 | A2 c2 [DFB]2 | [CEA]4 [B,EG]2 | [A,F]6 | [DF]2 [DG]2 [DA]2 | c2 z2 z2 | [B,EG]6- | %7
w: R.~Menthal * *|||||||
[M:2/4] [B,EG]4 |[M:1/4] [EB]2 |[M:3/4] [FA]4 [CFA]2 | [B,EG]4 [B,EG]2 | [A,F]2 [EG]2 [C_EA]2 | %12
w: |||||
 [DB]4 z2 | [A,C]4 [A,CF]2 | [CFA]4 [B,EG]2 | [F,A,F]6- | [F,A,F]6 | c2 B2 [CFA]2 | %18
w: ||||||
 [CEA]4 [B,EG]2 | [DB]2 z2 z2 | [A,DG]4 [A,DF]2 | A2 B2 c2 | [Dd]2 [CFc]2 [CFA]2 | [=B,FA]6 | %24
w: ||||||
 [CEG]6 | A4 A2 | B4 =B2 | c4 z2 | d4 z2 | F4 z2 | [FA]4 z2 | [F,A,F]6- | %32
w: ||||||||
[M:7/4] [F,A,F]6 z2 z2 z4 |[M:3/4] [DF]6- | [DF]6 | [F,A,CF]6- | [F,A,CF]6 |] %37
w: |||||
V:2
 [F,A,]2 [F,A,]2 [F,B,F]2 | C2 z2 z2 | C,4 C,2 | z2 z2 _E2 | [B,,B,]2 [B,,B,]2 [B,,B,]2 | %5
 z2[K:treble] B2[K:bass] B,,2 | C,6- |[M:2/4] C,4 |[M:1/4] [C,G,]2 |[M:3/4] z2 A,2 F,2 | C,4 C,2 | %11
 z2 B,2 F,2 | z2 F,2 =B,,2 | C,4 C,2 | C,4 C,2 | F,,6- | F,,6 | [F,F]2- [F,DF]2 F,2 | C,4 C,2 | %19
 z2 C2 ^C,2 | D,4 D,2 | F,2 G,2 [F,A,_E]2 | [B,,B,]2 A,,2 C,2 | D,4 G,,2 | C,6 | [F,CF]4 [F,CE]2 | %26
 [G,CE]4 [_A,DE]2 | [CF]2 z2 [A,EG]2 | F4 [A,CF]2 | [C,A,]4 C,2 | z2 D2 C,2 | F,,6- | %32
[M:7/4] F,,6 z2 z2 z4 |[M:3/4] z6 | F,4 G,2 | F,,6- | F,,6 |] %37
V:3
 x6 | [F,F]2- [F,EF]2 F,2 | x6 | F,6 | x6 | [B,,B,]4[K:treble][K:bass] z2 | x6 |[M:2/4] x4 | %8
[M:1/4] x2 |[M:3/4] F,4 z2 | x6 | F,4 z2 | B,,4 z2 | x6 | x6 | x6 | x6 | A,2 z2 z2 | x6 | C,4 z2 | %20
 x6 | C,4 z2 | x6 | x6 | x6 | x6 | x6 | A,4 z2 | [B,D]2 z2 z2 | x6 | C,4 z2 | x6 |[M:7/4] x14 | %33
[M:3/4] B,,6- | B,,6 | x6 | x6 |] %37
V:4
 x6 | x6 | x6 | x6 | x6 | D4 [B,DA]2 | x6 |[M:2/4] x4 |[M:1/4] x2 |[M:3/4] x6 | x6 | x6 | %12
 B,2 z2 [G,D]2 | x6 | x6 | x6 | x6 | x6 | x6 | E2- [EA]2 [B,EG]2 | x6 | _E4 z2 | x6 | x6 | x6 | %25
 x6 | x6 | z2 F2 ^c2 | z2 B,2 c2 | z2 C2 [A,CF]2 | C2 z2 [B,EG]2 | x6 |[M:7/4] x14 |[M:3/4] B,6 | %34
 x6 | x6 | x6 |] %37

